X: 31848
T: Paul Ryan's Dream
R: jig
M: 6/8
K: Bminor
B/c/|:dcd BdB|[FB]Bd fdB|cBc AcA|EAc edc|
~d3 BdB|FBd fdB|{a}fef afe|1 fdB B2c:|2 fdB Bdf||
bfb fdB|[FB]Bd fdB|{ab}aga ecA|EAc ece|
bfb fdB|FBd fdB|fdB cBA|1 FBB Bdf:|2 FBB B2c||

